X:69
T:ymdaith bach
R:rond
O:traditional welsh
Z:crm
M:2/4
L:1/8
Q:1/8=180
K:Bm
F|B>-BGB|F>GAF|B2A/B/c/d/|e2(3efe|dBB2|
FGAF|B2A/B/c/e/|dBB:||
d/e/|f2fd/e/|f2fc/d/|eeec/d/|eef/e/d/c/|dBGB|
FGAF|B2A/B/c/e/|dBB:||
